X:1
T:All the way back to Galway..
L:1/8
Q:1/4=110
M:2/4
K:D
"D" A/ z B/ AG |"D" FA d2 |"G" G>A GF |"A" EF G/F/E |
"D"A>B AG |"D" FA de/d/ |"G" "A"cA GE |"D" D2 D2 :|
